X: 14139
T: Frog In The Well, The
R: jig
M: 6/8
K: Edorian
|:D|~E3 FEE|BEE GFE|D3DFE|DFA dAF|
~E3 FEE|BEE G/F/ED|d2B AFA|BEE E2:|
|:B|efe BAB|def gfe|f2d Add|~f3 afd|
efe BAB|def gfe|d2B AFA|BEE E2:|

